static/img/general/ic-close.svg

<svg width="26" height="26" viewBox="0 0 26 26" fill="none" xmlns="http://www.w3.org/2000/svg">
<path d="M15.1677 12.8901L24.9364 2.75214C25.5433 2.12282 25.5433 1.10171 24.9364 0.472394C24.3295 -0.157465 23.3466 -0.157465 22.7397 0.472394L12.9709 10.6103L3.20171 0.472394C2.59479 -0.157465 1.61191 -0.157465 1.00499 0.472394C0.398075 1.10171 0.398075 2.12282 1.00499 2.75214L10.7742 12.8901L1.00499 23.028C0.398075 23.6573 0.398075 24.6784 1.00499 25.3077C1.30845 25.6221 1.70616 25.7796 2.10335 25.7796C2.50054 25.7796 2.89825 25.6221 3.20171 25.3072L12.9709 15.1693L22.7397 25.3072C23.0431 25.6221 23.4408 25.7796 23.838 25.7796C24.2352 25.7796 24.6329 25.6221 24.9364 25.3072C25.5433 24.6779 25.5433 23.6568 24.9364 23.0274L15.1677 12.8901Z" fill="white"/>
</svg>

<svg width="26" height="26" viewBox="0 0 26 26" fill="none" xmlns="http://www.w3.org/2000/svg"><path d="M15.168 12.89l9.768-10.138c.607-.63.607-1.65 0-2.28a1.513 1.513 0 0 0-2.196 0L12.97 10.61 3.203.472a1.513 1.513 0 0 0-2.197 0 1.655 1.655 0 0 0 0 2.28l9.77 10.138-9.77 10.138a1.655 1.655 0 0 0 0 2.28c.303.314.701.472 1.098.472a1.52 1.52 0 0 0 1.099-.473L12.97 15.17l9.769 10.138a1.52 1.52 0 0 0 1.098.473 1.52 1.52 0 0 0 1.098-.473c.607-.63.607-1.65 0-2.28L15.168 12.89z" fill="#fff"/></svg>
